X: 1349
T: Meftûnun Oldum...
C: Ahmet Mithat Güpgüpoğlu
O: Turkey
F: http://compmusic.upf.edu/node/140
N: kurdilihicazkar--sarki--curcuna--meftunun_oldum--ahmet_mithat_gupgupoglu
N: makam= kurdilihicazkar
N: form= sarki
N: usul= curcuna = 10/8
M: 10/8
L: 1/16
K: C _B _e _A 
Q: 1/4=198
%%MIDI tuningsystem comma53
g4 a2g2 f2e2 d2e6  | d2e2 f2g2 a2f2 a2g6  | \
w:  ARANAĞME  |   | 
g4 c'2b2 a2g2 f2e2 d2c2  | 
w:   | 
d2_3/4e2 f2e2 g2f2 e2d6  | c4 d2_3/4e4f4g6  | \
w:   |   | 
f2g2 a2g2 f2e2 d2c6  | 
w:   | 
B2c2 d2e2 f2d2 c2B2 A2G2  | G4 e2d2 c2B2 A2G6  | \
w:   |   | 
g4 a2g2 f2e2 d2e6  | 
w:  ARANAĞME  | 
d2e2 f2g2 a2f2 a2g6  | g4 c'2b2 a2g2 f2e2 d2c2  | \
w:   |   | 
d2_3/4e2 f2e2 g2f2 e2d6  | 
w:   | 
c4 d2_3/4e4f4g6  | f2g2 a2g2 f2e2 d2c6  | \
w:   |   | 
B2c2 d2e2 f2d2 c2B2 A2G2  | 
w:   | 
G4 e2d2 c2B2 A2G6  | f4 g4 g2g2 {a}gfg6  | \
w:   |  Mef tu nun  ol  | 
g2_3/4ag a2b2 g2g2 f2e3dc2  | 
w:  dum   | 
a6a2 g2f4b2 a2g2  | g3f e2d2 c2B2 A2G4z2  | \
w:  ey  vec *  hi  ah  |  sen  SAZ  | 
f4 g4 g2g2 {a}gfg6  | 
w:  Mef tu nun  ol  | 
g2_3/4ag a2b2 g2g2 f2e3dc2  | a6a2 g2f4b2 a2g2  | \
w:  dum   |  ey  vec *  hi  ah  | 
g4 _7/8a2g2 f2_3/4e2 f2g4z2  | 
w:  sen  SAZ  | 
f4 g4 g2g2 {a}gfg4f2  | f2g2 a2g2 f2e2 d2e4z2  | \
w:  Ay rıl mam  ar  |  tık   | 
e4 e4 e2e2 ede6  | 
w:  bir  lah za  sen  | 
d2e2 f2g2 a2g2 f2e3dc2  | c4 d4 d2d4g6  | \
w:  den   |  vaz geç mem  ar  | 
f2gf e2d2 c2B4c4z2  | 
w:  tık   | 
d2B2 B4 A2cB A2A4G2  | G4 a2g2 f2_3/4e2 f2g6  | \
w:  bil *  la hi  sen  |  den  SAZ  | 
f4 g4 g2g2 {a}gfg4f2  | 
w:  Ay rıl mam  ar  | 
f2g2 a2g2 f2e2 d2e4z2  | e4 e4 e2e2 ede6  | \
w:  tık   |  bir  lah za  sen  | 
d2e2 f2g2 a2g2 f2e3dc2  | 
w:  den   | 
c4 d4 d2d4g6  | f2gf e2d2 c2B4c4z2  | \
w:  vaz geç mem  ar  |  tık   | 
d2B2 B4 A2cB A2A4G2  | 
w:  bil *  la hi  sen  | 
G4 b2b2 b2_2/4a2 _3/4c'2b4z2  | f4 g4 _2/4a2b2 {c'}bab6  | \
w:  den  SAZ  |  Yan dım  tu tuş  | 
b2_3/4c'2 b2c'2 _3/4a2b4b2 a2g2  | 
w:  tum   | 
g2gf g4 _3/4a2b2 {_7/8c'}bab6  | b2_3/4c'2 b2c'2 _3/4a2b4b2 a2g2  | \
w:  can_ *  *  ü  ci ğer  |  den   | 
d'2_3/4c'2 c'2b2 _3/4a2c'2 b2a4g2  | 
w:  can_ *  ü  *  ci ğer  | 
g4 b2b2 b2_3/4a2 _3/4c'2b4z2  | f4 g4 _2/4a2b2 {c'}bab6  | \
w:  den  SAZ  |  Yan dım  tu tuş  | 
b2_3/4c'2 b2c'2 _3/4a2b4b2 a2g2  | 
w:  tum   | 
g2gf g4 _3/4a2b2 {_7/8c'}bab6  | b2_3/4c'2 b2c'2 _3/4a2b4b2 a2g2  | \
w:  can_ *  *  ü  ci ğer  |  den   | 
d'2_3/4c'2 c'2b2 _3/4a2c'2 b2a4g2  | 
w:  can_ *  ü  *  ci ğer  | 
g4 _7/8a2g2 f2_3/4e2 f2g4z2  | f4 g4 g2g2 {a}gfg4f2  | \
w:  den  SAZ  |  Ay rıl mam  ar  | 
f2g2 a2g2 f2e2 d2e4z2  | 
w:  tık   | 
e4 e4 e2e2 ede6  | d2e2 f2g2 a2g2 f2e3dc2  | \
w:  bir  lah za  sen  |  den   | 
c4 d4 d2d4g6  | 
w:  vaz geç mem  ar  | 
f2gf e2d2 c2B4c4z2  | d2B2 B4 A2cB A2A4G2  | \
w:  tık   |  bil *  la hi  sen  | 
G4 a2g2 f2_3/4e2 f2g6  | 
w:  den  SAZ  | 
f4 g4 g2g2 {a}gfg4f2  | f2g2 a2g2 f2e2 d2e4z2  | \
w:  Ay rıl mam  ar  |  tık   | 
e4 e4 e2e2 ede6  | 
w:  bir  lah za  sen  | 
d2e2 f2g2 a2g2 f2e3dc2  | c4 d4 d2d4g6  | \
w:  den   |  vaz geç mem  ar  | 
f2gf e2d2 c2B4c4z2  | 
w:  tık   | 
d2B2 B4 A2cB A2A4G2  | G4 e2d2 c2B2 A2G6  | |


